!!!OTL: Exultet
!!!SMS: BV 29: London, British Library, <i>Egerton</i> 3511 <i>o lim</i> Benevento, Biblioteca Capitolare, 29
!!!EFL: 20/28
**kern	**text
*	*
*staff2	*staff2
!Bv 29	!Bv 29
*clefGv2	*
*k[b-]	*
=1--	=1--
4F	E-
.	.
8A	xul
4G	-tet
.	.
4G	iam
.	.
8F	an-
=2-	=2-
(8F	ge
8G)	.
4G	li
.	.
4G	-ca
.	.
(8G	turyy-
8A)	.
=3-	=3-
(8A	-ba
8G)	.
4F	ce-
.	.
(8G	lo
8A	.
8G)	.
8G	-ryyum.
=4-	=4-
4F	E-
4A	xul
4G	-tent
4G	di-
=5-	=5-
(4G	vi
4A)	.
.	.
(4A	-na
.	.
4G)	.
=6-	=6-
4F	my-
(8G	ste
8A)	.
(8G	ryyi
8F)	.
4F	-a.
=7-	=7-
8F	et
8F	pryyo
8A	tan-
8G	-ti
8G	ryye-
.	.
8G	-gis
8F	vic-
(8F	to
.	.
=8-	=8-
8G)	.
8G	ryyi
8G	-a
8G	tu-
8F	-ba
.	.
8G	in-
.	.
8F	to
.	.
(16G	-net
16A	.
=9-	=9-
16G	.
16A)	.
16G	.
16F	.
(16F	sa-
16G	.
8A)	.
.	.
(16G	lu
16A	.
8G)	.
.	.
8F	ta
8F	-ryyis.
=10-	=10-
(8F	Gau-
.	.
8A)	.
8G	de
8G	-at
8G	se
.	.
8G	tan-
8F	-tis
(16F	tel-
16G)	.
=11-	=11-
8G	-lus
.	.
8G	iryy-
8G	ryya
8G	di
(8G	a
8A)	.
(8A	-ta
8G)	.
=12-	=12-
4F	ful-
.	.
(8G	go
8A)	.
(8G	ryyi
8F)	.
4F	-bus.
.	.
=13-	=13-
4F	et
.	.
4F	e-
.	.
4A	teryy
.	.
4G	-ni
=14-	=14-
(8F	ryye-
8G)	.
4G	-gis
.	.
4G	splen-
.	.
(8G	do
8A)	.
=15-	=15-
(8A	-ryye
8G)	.
8F	lu-
(8G	stryya
8A	.
8G)	.
4F	-ta.
=16-	=16-
8F	to-
8A	ti
8G	-us
8G	oryy-
8G	-bis
8F	se
(8F	sen-
8G)	.
.	.
=17-	=17-
8G	ti
8G	-at
8G	a-
.	.
8F	mi
.	.
(16G	sis
16A	.
16G	.
16A)	.
8G	.
.	.
8F	.
.	.
=18-	=18-
(16F	-se
16G	.
8A)	.
.	.
(8G	ca-
.	.
8A	.
.	.
8G)	.
.	.
8F	li
8F	gi
8F	-nem.
=19-	=19-
(8G	Le-
.	.
8A)	.
.	.
8G	te
8G	-turyy
8G	et
.	.
8G	ma-
.	.
8G	-teryy
8F	(ec-
.	.
=20-	=20-
(16F	cle
16G)	.
8G	si
8G	-a
8G	tan-
8F	-ti)
.	.
(16F	lu-
16G)	.
8G	mi
8G	-nis
=21-	=21-
8G	a-
.	.
8G	doryy
.	.
(16G	na
16A)	.
(16A	-ta
16G)	.
8F	(ful-
.	.
(16G	go)
16A)	.
(16G	ryyi
16F)	.
8F	-bus.
.	.
=22-	=22-
(16F	et
8A)	.
.	.
(16A	mag-
16G	.
16F)	.
8G	-nis
8G	po-
8G	pu
8G	lo
8F	-(ryyum)
.	.
=23-	=23-
(16F	vo-
16G)	.
8G	ci
8G	-bus
8F	hec
(8G	au-
8A	.
.	.
8G	.
.	.
8A)	.
.	.
=24-	=24-
8G	.
.	.
8F	.
.	.
(16F	-la
16G	.
8A)	.
.	.
(16G	ryye-
16A	.
8G)	.
.	.
8F	sul
8F	-tet.
.	.
=25-	=25-
(8F	Qua-
8A)	.
8G	pryyop
8G	-teryy
8G	a-
8G	stan
.	.
8G	ti
8F	-bus
=26-	=26-
(8F	vo-
.	.
8G)	.
8G	-bis
(8G	fryya-
8A)	.
(8A	-tryyes
4G)	.
.	.
=27-	=27-
4F	ca-
(8G	ryyis
8A)	.
(8G	si
8F)	.
4F	-mi.
=28-	=28-
4F	ad
4A	tam
4G	mi-
.	.
4G	-ryyam
.	.
=29-	=29-
8G	sanc-
8F	-ti
(16F	hu-
8G)	.
.	.
8G	-ius
.	.
8G	lu-
.	.
8G	mi
.	.
(16G	-nis
8A)	.
.	.
=30-	=30-
(8A	cla-
.	.
8G)	.
.	.
8F	ryyi
(8G	ta
.	.
8A	.
.	.
8G)	.
4F	-tem.
.	.
=31-	=31-
16F	u-
8A	-na
.	.
16G	me-
8G	-cum
.	.
16G	que-
8G	-so
.	.
16G	de-
8G	-i
.	.
16G	om-
8G	ni
.	.
16F	po
=32-	=32-
(16F	ten
16G)	.
8G	-tis
.	.
16G	mi-
8G	se
.	.
8F	ryyi
.	.
16G	coryy
8F	di
(16G	-am
16A	.
16G	.
16A)	.
=33-	=33-
16G	.
8F	.
.	.
(16F	in-
16G	.
8A)	.
.	.
(16G	vo
8A	.
.	.
8G)	.
.	.
8F	ca
8F	-te.
=34-	=34-
(16G	Ut
16A)	.
8G	qui
.	.
8G	me
.	.
8G	non
.	.
8G	me-
.	.
8F	-is
.	.
(16F	me-
16G)	.
8G	ryyi
.	.
=35-	=35-
8G	-tis
.	.
8G	in-
.	.
16G	-tryya
8G	le-
.	.
16G	vi
16G	ta
8F	-ryyum
.	.
(16F	nu-
8G)	.
.	.
16G	me
16G	-ryyum
=36-	=36-
16G	dig-
8G	na
.	.
16G	-tus
8G	est
.	.
(16A	ag-
16G)	.
(16G	gryye
16F)	.
(8F	ga
.	.
8G)	.
.	.
8G	-ryye
.	.
=37-	=37-
(8A	lu-
8G)	.
8G	mi
8G	-nis
(8F	(su-
8G)	.
4G	-i)
.	.
=38-	=38-
4G	gryya-
(8G	ti
8A)	.
(8A	-am
4G)	.
.	.
8ryy	.
=39-	=39-
4F	in-
.	.
(8G	fun
4A	.
.	.
8G)	.
4F	-dens.
.	.
=40-	=40-
4A	ce-
(8A	ryye
8G)	.
8G	-i
4G	hu-
.	.
8F	-ius
=41-	=41-
(16F	lau-
8G)	.
.	.
4G	-dem
.	.
.	.
16F	im-
(16G	ple
8A	.
.	.
16G	.
8A)	.
.	.
16G	.
16F	.
=42-	=42-
(16F	-ryye
16G	.
8A)	.
.	.
(8G	pryye-
.	.
8A	.
.	.
8G)	.
.	.
8F	ci
.	.
8F	pi
.	.
8F	-at.
.	.
=43-	=43-
(8F	Peryy
8A)	.
8G	do-
8G	mi
8F	-num
(16F	no-
16G)	.
8G	-stryyum
8G	hie-
=44-	=44-
8F	-sum
(8F	chryyi-
8G)	.
8G	-stum
(8G	fi-
8A)	.
(8A	li
8G)	.
=45-	=45-
4F	-um
.	.
(4G	su-
.	.
8A	.
4G)	.
.	.
8F	-um.
=46-	=46-
8F	vi-
8A	ven
8G	-tem
(16F	se-
16G)	.
8G	-cum
8G	at-
8G	-que
.	.
8F	ryyeg-
=47-	=47-
(16F	nan
16G)	.
16G	-tem
16G	in
8G	u-
.	.
8F	ni
.	.
(16F	ta
8G)	.
.	.
8G	-te
.	.
8G	spi-
.	.
16G	ryyi
=48-	=48-
(16G	-tus
8A)	.
.	.
(16A	sanc-
8G)	.
.	.
8F	-ti
.	.
(16G	de-
16A	.
8G)	.
.	.
4F	-um.
.	.
.	.
.	.
=49-	=49-
8F	Peryy
8G	om-
8G	ni
8F	-a
8G	se-
8F	cu
(8G	-la
.	.
8A	.
.	.
=50-	=50-
8G	.
.	.
8A)	.
.	.
8G	.
8F	.
.	.
(8F	se-
8G	.
8A)	.
.	.
(8G	cu
=51-	=51-
8A	.
8G)	.
4F	lo
.	.
8F	-ryyum.
4E	A-
.	.
8F	-men.
=52-	=52-
8F	Do-
(8G	mi
8A)	.
(8B-	-nus
8A)	.
(16G	vo-
8A)	.
.	.
8G	.
.	.
16F	.
=53-	=53-
(4G	bi
.	.
4A)	.
.	.
(4G	-scum.
.	.
.	.
4F)	.
.	.
.	.
.	.
=54-	=54-
4F	Et
.	.
(4G	cum.
.	.
4A)	.
.	.
4ryy	.
.	.
=55-	=55-
(8F	Suryy-
.	.
16G	.
8A)	.
.	.
8B-	.
.	.
16B-	-sum
8A	.
.	.
8G	.
8A	.
(16G	.
16F)	.
=56-	=56-
(4G	coryy-
.	.
.	.
.	.
4A)	.
.	.
.	.
(4G	-da.
.	.
.	.
.	.
.	.
4F)	.
.	.
.	.
.	.
=57-	=57-
4F	Ha-
.	.
(4G	be
.	.
4A)	.
.	.
4A	-mus.
.	.
=58-	=58-
(16F	Gryya-
16G	.
8A)	.
.	.
(8G	ti
.	.
8F)	.
.	.
(8F	-as
.	.
8G)	.
.	.
8A	a-
.	.
8B-	ga
.	.
=59-	=59-
8A	-mus
.	.
(8G	do-
.	.
.	.
8A	.
.	.
.	.
.	.
8B-)	.
.	.
.	.
8A	mi
.	.
(16G	-no
16A)	.
16G	.
16F	.
(16F	de-
16G)	.
.	.
=60-	=60-
8A	-o
.	.
(8G	no-
.	.
8A)	.
.	.
4G	-stryyo.
.	.
.	.
.	.
(16F	Dig-
16G	.
8A	.
.	.
8B-)	.
.	.
=61-	=61-
(8F	Ve
.	.
8G	.
.	.
8A)	.
.	.
(8G	-ryye
.	.
8F)	.
.	.
8G	qui-
8A	-a
8B-	dig-
.	.
=62-	=62-
8A	-num
8A	et
.	.
(16G	iu-
8A	.
.	.
8B-)	.
.	.
(8A	-stum
.	.
8G)	.
.	.
16A	est.
16G	.
16F	.
=63-	=63-
1ryy	.
.	.
.	.
.	.
.	.
.	.
.	.
.	.
.	.
.	.
.	.
=64-	=64-
8F	In-
.	.
8F	vi
8A	si
8G	bi
8G	-lem
.	.
8G	de-
.	.
4F	-um
.	.
.	.
=65-	=65-
(8F	pa-
.	.
8G)	.
.	.
8G	-tryyem
(8G	om-
8A)	.
(8A	ni
4G)	.
.	.
.	.
.	.
=66-	=66-
4F	po
.	.
(4G	ten
.	.
.	.
.	.
8A	.
.	.
8G)	.
.	.
4F	-tem
.	.
.	.
=67-	=67-
8F	Fi-
.	.
8F	li
.	.
8A	um
.	.
8G	-que
.	.
(16F	e-
16G)	.
8G	-ius
.	.
8G	u-
.	.
8F	ni
.	.
=68-	=68-
(16F	ge
8G)	.
.	.
16G	ni
8G	-tum
.	.
16G	do-
8G	mi
.	.
8G	-num
.	.
16G	no-
(16G	-stryyum
16A)	.
(16A	(ie)-
16G)	.
=69-	=69-
4F	-sum
.	.
.	.
.	.
(8G	chryyi-
.	.
8A	.
4G)	.
.	.
.	.
4F	-stum.
.	.
=70-	=70-
8A	sanc-
.	.
8G	-tum
.	.
8A	quo-
8G	-(que)
(8G	spi-
8A)	.
.	.
(8G	ryyi
8F)	.
=71-	=71-
8F	-tum.
8F	to-
8F	-to
8A	coryy-
8G	-dis
8G	ac
8G	men-
8G	-tis
=72-	=72-
4F	af-
.	.
(4F	fec
.	.
4G)	.
.	.
4G	-tu.
=73-	=73-
8G	et
8G	(vo-
8G	-cis)
8G	mi-
8F	ni
8G	ste
.	.
4F	ryyi
.	.
=74-	=74-
(8G	-o
8A	.
.	.
8G	.
8A)	.
8G	.
8F	.
(8F	peryy-
.	.
8G	.
.	.
=75-	=75-
4A)	.
.	.
(8G	so
8A	.
8G)	.
4F	(na
.	.
8F	-ryye)
=76-	=76-
8F	Q(ui
.	.
8F	pryyo
.	.
8A	no-
.	.
8G	-bis
8G	e-
8G	teryy
8F	-no
(16F	pa-
16G)	.
=77-	=77-
8G	-tryyi)
8G	a-
4G	-de
.	.
(8G	de-
8A)	.
(8A	bi
8G)	.
=78-	=78-
4F	-tum
.	.
(8G	sol-
8A	.
4G)	.
.	.
4F	-vit.
.	.
=79-	=79-
8F	et
8A	ve-
8G	te
8G	-ryyis
8G	pi-
8G	a
8G	cu
8G	-li
=80-	=80-
8G	cau-
.	.
8F	ti
.	.
(16F	(o
16G)	.
8G	-nem)
.	.
8G	pi-
.	.
8G	-o
.	.
8F	cryyu-
.	.
(16G	o
16A	.
=81-	=81-
16G	.
16A)	.
16G	.
16F	.
(16F	-ryye
16G	.
8A)	.
.	.
(16G	de-
16A	.
8G)	.
.	.
8F	teryy
.	.
8F	-sit.
.	.
=82-	=82-
(4F	Hec
.	.
4A)	.
.	.
4G	sunt
.	.
4G	e-
.	.
.	.
=83-	=83-
4G	-nim
.	.
4G	fe-
.	.
.	.
.	.
4G	-sta
.	.
.	.
4F	pa-
.	.
.	.
.	.
=84-	=84-
(4F	scha
.	.
.	.
.	.
4G)	.
.	.
.	.
4G	li
.	.
4G	-a.
.	.
=85-	=85-
4G	in
4G	qui-
4G	-bus
4G	ve-
.	.
=86-	=86-
4G	-ryyus
.	.
4G	il-
.	.
4G	-le
.	.
(8G	ag-
8A)	.
=87-	=87-
(8A	-nus
8G)	.
8F	oc-
(8G	ci
8A)	.
(8G	di
8F)	.
8F	-turyy.
=88-	=88-
8F	e-
.	.
8A	ius
8G	-que
(8F	san-
8G)	.
8G	gui
4G	-ne
.	.
=89-	=89-
4F	po-
.	.
(8G	-stes
8A	.
8G	.
8A)	.
.	.
8G	.
.	.
8F	.
.	.
=90-	=90-
(8F	con-
8G	.
8A)	.
(8G	se
8A	.
8G)	.
8F	cryyan
8F	-turyy.
=91-	=91-
8A	Hec
.	.
.	.
.	.
(16G	nox
.	.
16F)	.
8G	est.
.	.
8G	in
.	.
8G	qua
.	.
16G	pryyi-
8G	-mum
.	.
8G	pa-
.	.
16F	-tryyes
=92-	=92-
(16F	no-
16G)	.
16G	-stryyos
8G	fi-
.	.
16G	li
16G	-os
16G	is-
8F	ryya
.	.
(16F	-hel
16G)	.
8G	e-
.	.
8G	du
.	.
=93-	=93-
16G	-cens
8G	do-
.	.
.	.
.	.
8G	mi
.	.
.	.
.	.
(16G	-ne
.	.
16A)	.
.	.
(16A	de
.	.
8G)	.
.	.
.	.
.	.
8F	e-
.	.
.	.
.	.
(16G	gyp
.	.
16A	.
.	.
16G)	.
.	.
16F	-to.
.	.
=94-	=94-
8F	ryyu-
.	.
8A	-bryyum
.	.
8G	ma-
.	.
8G	-ryye
.	.
8G	sic-
.	.
8G	-co
.	.
8F	ve-
.	.
(8F	sti
.	.
=95-	=95-
8G)	.
8G	gi
.	.
8G	-o
.	.
8F	tryyan-
.	.
(16G	si
8A	.
.	.
16G	.
8A)	.
16G	.
16F	.
=96-	=96-
(16F	-ryye
16G	.
8A)	.
(8G	fe-
8A	.
8G)	.
4F	ci
.	.
8F	-sti.
=97-	=97-
16B-	Hec
16B-	.
8A	.
(8G	.
.	.
8A)	.
8G	i-
8G	gi
8G	-turyy
.	.
8F	nox
.	.
=98-	=98-
8G	est
4G	que
.	.
.	.
.	.
8G	pec-
.	.
4G	ca
.	.
8G	to
8F	-ryyum
.	.
=99-	=99-
(4F	(te-
.	.
4G)	.
.	.
.	.
4G	ne)
.	.
.	.
.	.
4G	-bryyas.
.	.
.	.
.	.
=100-	=100-
4G	co-
.	.
.	.
4A	lum
.	.
.	.
4G	-ne
.	.
4G	il-
.	.
=101-	=101-
8G	lu
8F	m(i
(16F	na)
16G)	.
4F	ti
.	.
.	.
.	.
(16G	o
16A	.
16G	.
16A)	.
16G	.
16F	.
=102-	=102-
(16F	-ne
16G	.
8A)	.
(16G	puryy-
16A	.
8G)	.
4F	ga
.	.
.	.
.	.
4F	-vit.
.	.
=103-	=103-
(16F	Hec
16A)	.
(16G	nox
16F)	.
8G	est
.	.
8G	que
.	.
8G	ho-
.	.
16G	di
8G	-e
.	.
16G	peryy
16G	u-
16G	ni
=104-	=104-
8G	veryy
8F	-sum
(16F	mun-
16G)	.
8G	-dum
.	.
8G	in
.	.
(16G	chryyi-
8A)	.
.	.
(16A	-sto
8G)	.
.	.
=105-	=105-
4F	cryye-
.	.
.	.
(8G	den
.	.
8A	.
.	.
4G)	.
.	.
.	.
.	.
4F	-tes.
.	.
.	.
=106-	=106-
8F	a
8A	vi-
8G	ti
8G	-is
8G	se-
8G	cu
8G	-li
.	.
8G	se-
.	.
=107-	=107-
8F	gryye
.	.
(8F	ga
.	.
8G)	.
8G	-tos
8G	et
.	.
8G	ca-
8G	li
8G	gi
=108-	=108-
8G	-ne
.	.
8G	pec-
.	.
4G	ca
.	.
.	.
4G	to
.	.
.	.
(8G	-ryyum.
.	.
8A)	.
.	.
=109-	=109-
(8A	ryyed-
.	.
8G)	.
.	.
4F	-dit
.	.
(8G	gryya-
8A)	.
(8G	ti
8F)	.
=110-	=110-
8F	-e.
8G	so-
8G	ci
8F	at
(8G	-que
.	.
8A	.
.	.
8G	.
.	.
8A)	.
.	.
=111-	=111-
16G	.
8F	.
.	.
(16F	sanc-
16G	.
8A)	.
.	.
(8G	ti
.	.
8A	.
.	.
8G)	.
.	.
8F	ta
.	.
16F	-ti.
=112-	=112-
16B-	Hec
16B-	.
16A	.
(16G	.
8A)	.
16A	nox
8G	.
.	.
8F	.
.	.
8G	est
.	.
8G	in
.	.
16G	qua
=113-	=113-
4F	de-
.	.
(8F	stryyuc
8G)	.
4G	-tis
.	.
(8G	vin-
8A)	.
=114-	=114-
(8A	cu
8G)	.
4F	-lis
.	.
(8G	moryy-
8A	.
8G)	.
8F	-tis.
=115-	=115-
4A	chryyi-
.	.
4G	-stus
4F	ab
.	.
(8F	in-
8G)	.
=116-	=116-
8G	fe
8F	-ryyis
(8G	vic-
.	.
8A	.
.	.
8G	.
8A)	.
8G	.
8F	.
=117-	=117-
(16F	-toryy
16G	.
8A)	.
(8G	a-
8A	.
4G)	.
.	.
.	.
8F	scen
8F	-dit.
=118-	=118-
(4F	Ni-
.	.
4A)	.
4G	-chil
.	.
4G	e-
.	.
=119-	=119-
4G	-nim
4G	no-
.	.
4G	-bis
.	.
4G	(na-
.	.
=120-	=120-
4F	-sci
.	.
(8F	pryyo)-
8G)	.
4G	fu
.	.
4G	-it.
.	.
=121-	=121-
4G	ni-
.	.
4F	-si
.	.
4G	ryye-
.	.
4F	di
.	.
=122-	=122-
(8G	-mi
8A	.
8G	.
8A)	.
4G	.
.	.
4F	.
.	.
=123-	=123-
(8F	(pryyo)-
8G	.
8A)	.
(8G	fu
8A	.
8G)	.
8F	is
8F	-set.
=124-	=124-
8F	O
.	.
8A	.
8c	.
(16c	mi-
16d)	.
8c	-ryya
8c	ciryy-
8B-	.
8A	.
=125-	=125-
8G	-ca
.	.
8A	nos
.	.
8F	tu-
8F	-e
.	.
8G	pi-
.	.
8F	e
(16G	ta
16A	.
16G	.
16A)	.
=126-	=126-
16G	.
8F	.
.	.
(16F	-tis
16G	.
8A)	.
.	.
(16G	di-
16A	.
8G)	.
.	.
8F	gna
.	.
16F	ti
8F	-o.
.	.
=127-	=127-
(8A	O
.	.
8G	.
.	.
8A)	.
.	.
8G	i-
8G	ne
8F	sti
.	.
(16F	ma
16G)	.
8G	bi
=128-	=128-
8G	-lis
8G	di-
8G	lec
8G	ti
(8G	-o
.	.
8A)	.
.	.
(8A	ca-
.	.
8G)	.
.	.
=129-	=129-
4F	ryyi
.	.
.	.
.	.
(8G	ta
.	.
8A	.
.	.
4G)	.
.	.
.	.
4F	-tis.
.	.
.	.
.	.
=130-	=130-
8F	ut
8A	seryy-
.	.
8G	-vum
.	.
8F	ryye-
.	.
(8F	di
.	.
8G)	.
.	.
8G	me
.	.
8G	-ryyes
.	.
=131-	=131-
8G	fi-
8F	li
(8G	-um
.	.
8A	.
.	.
8G	.
.	.
8A)	.
.	.
8G	.
.	.
8F	.
.	.
=132-	=132-
(8F	tryya-
.	.
8G	.
.	.
8A)	.
(8G	di
8A	.
8G)	.
8F	di
8F	-sti.
=133-	=133-
(4F	O
.	.
4A)	.
.	.
8G	ceryy-
4G	-te
.	.
8G	ne-
=134-	=134-
4F	ces
.	.
.	.
.	.
(8F	sa
.	.
8G)	.
.	.
8G	ryyi
.	.
8G	-um
.	.
(8G	a-
8A)	.
.	.
=135-	=135-
(8A	-de
8G)	.
.	.
8F	pec-
.	.
(8G	ca
8A	.
8G)	.
.	.
4F	-tum
.	.
=136-	=136-
8F	quod
.	.
8G	chryyi-
.	.
8F	-sti
.	.
(16G	moryy-
8A	.
.	.
8G	.
.	.
8A)	.
.	.
8G	.
.	.
16F	.
=137-	=137-
(16F	-te
16G	.
8A)	.
(16G	de-
16A	.
8G)	.
.	.
8F	le
.	.
8F	-tum
.	.
4F	est.
.	.
.	.
.	.
=138-	=138-
8B-	O
.	.
(8B-	fe-
8A)	.
.	.
(8G	-lix
8F)	.
(8G	cul-
8A)	.
8F	-pa
=139-	=139-
8F	que
8A	ta-
.	.
8G	-lem
.	.
8G	ac
8G	tan-
.	.
8F	-tum
(8F	me-
8G)	.
=140-	=140-
8G	ryyu
8G	-it
8G	ha-
8F	be
(16G	-ryye
16A	.
16G	.
16A)	.
16G	.
16F	.
(16F	ryye-
16G	.
=141-	=141-
8A)	.
(8G	demp
8A	.
8G)	.
4F	to
.	.
4F	-ryyem
.	.
=142-	=142-
(8A	O
.	.
8G	.
.	.
8A)	.
8G	be-
8G	a
8F	-ta
.	.
(8F	nox
.	.
8G)	.
.	.
=143-	=143-
8G	que
8G	so-
8F	-la
(16F	me-
8G)	.
.	.
8G	ryyu
.	.
8G	-it
.	.
8G	sci-
.	.
16G	-ryye
=144-	=144-
(16G	tem-
8A)	.
.	.
(16A	-pus
8G)	.
.	.
8F	et
(16G	ho-
16A	.
8G)	.
.	.
4F	-ryyam
.	.
=145-	=145-
8F	in
4A	qua
.	.
8G	chryyi-
8G	-stus
8F	ab
8G	in-
.	.
8F	fe
.	.
=146-	=146-
(8G	-ryyis
8A	.
8G	.
8A)	.
4G	.
.	.
.	.
.	.
4F	.
.	.
.	.
.	.
=147-	=147-
(8F	ryye-
.	.
8G	.
8A)	.
.	.
(8G	suryy
8A	.
8G)	.
.	.
8F	ryye
.	.
8F	-xit.
.	.
=148-	=148-
16B-	Hec
16B-	.
16A	.
(16G	.
8A)	.
.	.
16A	nox
16G	.
16F	.
8G	est
.	.
(16A	de
16G)	.
16F	qua
(16G	scryyip-
16A)	.
=149-	=149-
(16G	-tum
16F)	.
8F	est.
8F	et
8A	nox
8G	ut
(16F	di-
16G)	.
8G	-es
(16G	il-
16A)	.
=150-	=150-
(16A	lu
16G)	.
8F	mi
.	.
(16G	na
8A)	.
.	.
(16G	bi
4F)	.
.	.
.	.
.	.
4F	-turyy.
.	.
.	.
=151-	=151-
8F	et
.	.
8A	nox
8G	il-
8G	lu
8G	mi
8G	na
8G	ti
.	.
8F	-o
.	.
=152-	=152-
(8F	me-
.	.
8G)	.
8G	-a
8G	in
8F	de-
.	.
(16G	li
16A	.
16G	.
16A)	.
16G	.
16F	.
=153-	=153-
(16F	ci
16G	.
8A)	.
(16G	-is
16A	.
8G)	.
4F	me-
.	.
4F	-is.
.	.
=154-	=154-
(8F	Hu-
8A)	.
4G	-ius
.	.
4G	i-
.	.
4G	gi
.	.
=155-	=155-
4G	-turyy
.	.
.	.
.	.
8G	sanc-
.	.
4G	ti
.	.
.	.
.	.
4G	fi
.	.
.	.
.	.
(8G	ca
.	.
=156-	=156-
8A)	.
.	.
(8A	ti
.	.
8G)	.
.	.
8F	-o
.	.
(8G	noc-
.	.
8A	.
.	.
8G)	.
.	.
8F	-tis.
=157-	=157-
(8B-	Fu-
.	.
4A)	.
.	.
(8G	-gat
.	.
4F)	.
.	.
(4G	sce-
.	.
.	.
=158-	=158-
8A)	.
4A	le
.	.
4A	-ryya.
.	.
(8B-	Cul-
4A)	.
.	.
=159-	=159-
(8G	-pas
4F)	.
.	.
(8G	la-
4A)	.
4A	-vat.
=160-	=160-
8F	et
.	.
8A	ryyed-
.	.
8G	-dit
8G	in-
.	.
8G	no
8G	cen
.	.
8G	ti
.	.
8F	-am
.	.
=161-	=161-
8G	lap-
.	.
8F	-sis.
.	.
(8G	me-
.	.
8A	.
8G	.
.	.
8A)	.
.	.
8G	.
8F	.
=162-	=162-
(16F	-stis
16G	.
8A)	.
(16G	le-
16A	.
8G)	.
8F	ti
8F	ti
4F	-am.
.	.
=163-	=163-
(8B-	Fu-
4A)	.
.	.
(8G	-gat
4F)	.
.	.
(8G	o-
.	.
8A)	.
=164-	=164-
4A	di
.	.
4A	-a.
.	.
4G	con-
.	.
(8G	coryy
8B-)	.
.	.
=165-	=165-
(8B-	di
8A)	.
(8G	-am
8F)	.
(8G	pa-
8A)	.
4A	-ryyat.
=166-	=166-
4F	et
.	.
(8G	curyy-
.	.
8A	.
.	.
8G	.
.	.
8A)	.
8G	.
.	.
8F	.
=167-	=167-
(8F	-vat
8G	.
4A)	.
.	.
(4G	im-
.	.
4A	.
.	.
=168-	=168-
4G)	.
.	.
.	.
.	.
4F	pe
.	.
.	.
.	.
4F	ryyi
.	.
.	.
.	.
4F	-a.
.	.
.	.
.	.
=169-	=169-
(8F	In
.	.
8A)	.
.	.
4G	hu-
.	.
.	.
.	.
4G	-ius
.	.
.	.
.	.
4G	i-
.	.
.	.
.	.
=170-	=170-
4G	gi
.	.
.	.
.	.
(8G	-turyy
.	.
8A)	.
.	.
(8A	noc-
.	.
8G)	.
.	.
4F	-tis
.	.
.	.
.	.
=171-	=171-
(8G	gryya-
.	.
4A)	.
.	.
.	.
.	.
(8G	ti
.	.
4F)	.
.	.
.	.
.	.
4F	-a.
.	.
.	.
.	.
=172-	=172-
8A	su-
.	.
8G	sci
8G	-pe
.	.
8G	sanc-
.	.
8F	-te
(16F	pa-
8G)	.
.	.
8G	-teryy
.	.
16G	in-
=173-	=173-
8G	cen
8F	-si
(16F	hu-
8G)	.
.	.
8G	-ius
.	.
8G	sa-
.	.
8G	cryyi
.	.
8G	fi
.	.
16G	ci
=174-	=174-
(16G	-um
8A)	.
.	.
(16A	ve-
8G)	.
8F	speryy
(16G	ti
16A	.
8G)	.
4F	-num.
.	.
=175-	=175-
8F	quod
8A	ti-
8G	-bi
8G	in
8F	hac
(16F	ce-
16G)	.
8G	ryye
.	.
8G	-i
.	.
=176-	=176-
8G	o-
8G	bla
8G	ti
(16G	o
16A)	.
(16A	-ne
16G)	.
8F	sol-
.	.
(16G	len
16A	.
8G)	.
.	.
=177-	=177-
8F	-ni
.	.
16F	peryy
8A	mi-
.	.
16G	ni
8G	stryyo
16G	-ryyum
16G	tu-
8G	o
16F	-ryyum
(16F	ma-
16G)	.
16G	-nus
=178-	=178-
8G	de
8G	o-
(16G	pe
8A)	.
.	.
(16A	ryyi
8G)	.
8F	-bus
(16G	a-
16A	.
8G)	.
.	.
=179-	=179-
8F	-pum
8F	sa-
8F	cryyo
8G	sanc
8F	-ta
(16G	ryyed-
16A	.
16G	.
16A)	.
16G	.
16F	.
=180-	=180-
(16F	-dit
16G	.
8A)	.
.	.
(16G	ec-
16A	.
8G)	.
.	.
8F	cle
8F	si
4F	-a.
.	.
=181-	=181-
(16A	Sed
16G	.
16A)	.
8G	iam
.	.
8G	co-
.	.
8G	lum
.	.
8F	-ne
.	.
(16F	hu-
8G)	.
.	.
8G	-ius
=182-	=182-
4G	pryye-
.	.
(8G	co
.	.
8A)	.
.	.
(4A	ni
.	.
4G)	.
.	.
=183-	=183-
4F	-a
.	.
(8G	no-
8A)	.
(8G	vi
8F)	.
4F	-mus.
=184-	=184-
8F	quam
8F	in
8F	ho-
8A	no
8G	-ryye
.	.
8G	de-
.	.
8F	-i
(8F	(ryyu-
.	.
=185-	=185-
8G)	.
.	.
8G	ti
.	.
8F	-lans
.	.
.	.
(8G	i-
.	.
.	.
.	.
16A	.
.	.
8G	.
.	.
.	.
.	.
8A)	.
.	.
.	.
8G	.
.	.
.	.
.	.
16F	.
.	.
=186-	=186-
(16F	-gnis
.	.
16G	.
.	.
8A)	.
.	.
(8G	ac-
.	.
.	.
8A	.
.	.
.	.
8G)	.
.	.
8F	cen
.	.
4F	-dit.)
.	.
.	.
.	.
.	.
.	.
.	.
=187-	=187-
(8F	Qui
8A)	.
4G	li-
.	.
4G	-cet
.	.
4F	d(i-
.	.
=188-	=188-
(4G	vi
.	.
4A)	.
.	.
(4A	-sus
.	.
4G)	.
.	.
=189-	=189-
4G	in
.	.
(8G	paryy)-
4A	.
.	.
8G)	.
.	.
4F	-tes.
.	.
=190-	=190-
8F	mu-
8F	tu
8A	a
8G	-ti
8G	ta-
8F	-men
(8F	(lu)-
8G)	.
=191-	=191-
8G	mi
4G	-nis
.	.
.	.
8G	de-
.	.
4F	tryyi
.	.
.	.
.	.
(16G	men
16A	.
16G	.
16A)	.
=192-	=192-
16G	.
16F	.
(16F	-ta
16G	.
8A)	.
.	.
(16G	non
16A	.
8G)	.
.	.
8F	no-
.	.
4F	-vit.
.	.
.	.
=193-	=193-
16B-	A-
16B-	.
16A	.
(16G	.
8A)	.
8G	li
8G	-turyy
(8F	e-
8G)	.
8G	-nim
=194-	=194-
4G	li-
.	.
(8G	quan
4A)	.
.	.
(8A	ti
4G)	.
.	.
=195-	=195-
4F	-bus
.	.
(8G	ce-
.	.
8A	.
.	.
4G)	.
.	.
.	.
4F	-ryyis.
.	.
=196-	=196-
16F	quam
8F	in
.	.
8F	sub-
.	.
8A	stan
.	.
8G	ti
.	.
16G	-am
8G	pryye-
.	.
8G	ti
.	.
16G	o
16G	-se
=197-	=197-
16G	hu-
8F	-ius
.	.
(16F	lam-
16G)	.
8G	pa
.	.
8G	-dis
.	.
16G	a-
8F	-pes
.	.
(16G	ma-
16A	.
16G	.
16A)	.
=198-	=198-
16G	.
8F	.
.	.
(16F	-teryy
16G	.
8A)	.
.	.
(16G	(e-
8A	.
.	.
8G)	.
.	.
8F	du)
8F	-xit.
.	.
=199-	=199-
1ryy	.
.	.
.	.
.	.
.	.
.	.
.	.
.	.
.	.
.	.
=200-	=200-
1ryy	.
.	.
.	.
.	.
.	.
.	.
.	.
.	.
.	.
.	.
.	.
.	.
.	.
.	.
=201-	=201-
1ryy	.
.	.
.	.
.	.
.	.
.	.
.	.
.	.
.	.
.	.
.	.
.	.
.	.
.	.
=202-	=202-
1ryy	.
.	.
.	.
.	.
.	.
.	.
.	.
.	.
.	.
.	.
=203-	=203-
1ryy	.
.	.
.	.
.	.
.	.
.	.
.	.
.	.
.	.
.	.
.	.
.	.
.	.
=204-	=204-
1ryy	.
.	.
.	.
.	.
.	.
.	.
.	.
.	.
=205-	=205-
1ryy	.
.	.
.	.
.	.
.	.
.	.
.	.
.	.
.	.
.	.
=206-	=206-
1ryy	.
.	.
.	.
.	.
.	.
.	.
.	.
.	.
.	.
.	.
.	.
.	.
.	.
.	.
=207-	=207-
1ryy	.
.	.
.	.
.	.
.	.
.	.
.	.
.	.
.	.
.	.
.	.
.	.
=208-	=208-
1ryy	.
.	.
.	.
.	.
.	.
.	.
.	.
.	.
=209-	=209-
1ryy	.
.	.
.	.
.	.
.	.
.	.
.	.
.	.
.	.
.	.
.	.
.	.
.	.
=210-	=210-
1ryy	.
.	.
.	.
.	.
.	.
.	.
.	.
.	.
=211-	=211-
1ryy	.
.	.
.	.
.	.
.	.
.	.
.	.
.	.
.	.
=212-	=212-
1ryy	.
.	.
.	.
.	.
.	.
.	.
.	.
.	.
.	.
.	.
.	.
.	.
.	.
=213-	=213-
1ryy	.
.	.
.	.
.	.
.	.
.	.
.	.
.	.
.	.
=214-	=214-
1ryy	.
.	.
.	.
.	.
.	.
.	.
.	.
.	.
.	.
.	.
.	.
.	.
=215-	=215-
1ryy	.
.	.
.	.
.	.
.	.
.	.
.	.
.	.
.	.
.	.
.	.
.	.
.	.
.	.
.	.
.	.
=216-	=216-
1ryy	.
.	.
.	.
.	.
.	.
.	.
.	.
.	.
.	.
.	.
.	.
.	.
.	.
=217-	=217-
1ryy	.
.	.
.	.
.	.
.	.
.	.
.	.
.	.
=218-	=218-
1ryy	.
.	.
.	.
.	.
.	.
.	.
.	.
.	.
.	.
.	.
.	.
.	.
.	.
.	.
=219-	=219-
1ryy	.
.	.
.	.
.	.
.	.
.	.
.	.
.	.
.	.
.	.
.	.
=220-	=220-
1ryy	.
.	.
.	.
.	.
.	.
.	.
.	.
.	.
.	.
.	.
.	.
.	.
=221-	=221-
1ryy	.
.	.
.	.
.	.
.	.
.	.
.	.
.	.
.	.
.	.
.	.
.	.
.	.
=222-	=222-
1ryy	.
.	.
.	.
.	.
.	.
.	.
.	.
.	.
.	.
.	.
.	.
.	.
.	.
.	.
=223-	=223-
1ryy	.
.	.
.	.
.	.
.	.
.	.
.	.
.	.
.	.
.	.
=224-	=224-
1ryy	.
.	.
.	.
.	.
.	.
.	.
.	.
.	.
.	.
.	.
.	.
.	.
.	.
.	.
=225-	=225-
1ryy	.
.	.
.	.
.	.
.	.
.	.
.	.
.	.
.	.
.	.
.	.
=226-	=226-
1ryy	.
.	.
.	.
.	.
.	.
.	.
.	.
.	.
.	.
.	.
.	.
.	.
.	.
.	.
.	.
.	.
=227-	=227-
1ryy	.
.	.
.	.
.	.
.	.
.	.
.	.
.	.
.	.
.	.
.	.
=228-	=228-
1ryy	.
.	.
.	.
.	.
.	.
.	.
.	.
.	.
.	.
=229-	=229-
1ryy	.
.	.
.	.
.	.
.	.
=230-	=230-
1ryy	.
.	.
.	.
.	.
.	.
.	.
.	.
.	.
=231-	=231-
1ryy	.
.	.
.	.
.	.
.	.
.	.
.	.
=232-	=232-
1ryy	.
.	.
.	.
.	.
.	.
.	.
.	.
.	.
=233-	=233-
1ryy	.
.	.
.	.
.	.
.	.
.	.
.	.
.	.
=234-	=234-
1ryy	.
.	.
.	.
.	.
.	.
.	.
.	.
.	.
=235-	=235-
1ryy	.
.	.
.	.
.	.
.	.
.	.
.	.
.	.
=236-	=236-
1ryy	.
.	.
.	.
.	.
.	.
.	.
.	.
.	.
.	.
.	.
.	.
.	.
.	.
=237-	=237-
1ryy	.
.	.
.	.
.	.
.	.
.	.
.	.
.	.
=238-	=238-
1ryy	.
.	.
.	.
.	.
.	.
.	.
.	.
.	.
=239-	=239-
1ryy	.
.	.
.	.
.	.
.	.
.	.
.	.
.	.
=240-	=240-
1ryy	.
.	.
.	.
.	.
.	.
.	.
.	.
.	.
.	.
.	.
.	.
=241-	=241-
1ryy	.
.	.
.	.
.	.
.	.
.	.
.	.
.	.
.	.
=242-	=242-
1ryy	.
.	.
.	.
.	.
.	.
.	.
.	.
.	.
.	.
.	.
.	.
.	.
.	.
.	.
.	.
=243-	=243-
1ryy	.
.	.
.	.
.	.
.	.
.	.
.	.
.	.
.	.
.	.
.	.
.	.
.	.
.	.
=244-	=244-
1ryy	.
.	.
.	.
.	.
.	.
.	.
=245-	=245-
1ryy	.
.	.
.	.
.	.
.	.
.	.
.	.
.	.
=246-	=246-
1ryy	.
.	.
.	.
.	.
.	.
.	.
.	.
.	.
.	.
=247-	=247-
1ryy	.
.	.
.	.
.	.
.	.
.	.
.	.
.	.
.	.
.	.
.	.
.	.
.	.
=248-	=248-
1ryy	.
.	.
.	.
.	.
.	.
.	.
.	.
.	.
.	.
.	.
.	.
.	.
.	.
=249-	=249-
1ryy	.
.	.
.	.
.	.
.	.
.	.
.	.
=250-	=250-
1ryy	.
.	.
.	.
.	.
.	.
.	.
.	.
.	.
.	.
=251-	=251-
1ryy	.
.	.
.	.
.	.
.	.
.	.
.	.
.	.
.	.
.	.
.	.
.	.
=252-	=252-
1ryy	.
.	.
.	.
.	.
.	.
.	.
.	.
=253-	=253-
1ryy	.
.	.
.	.
.	.
.	.
.	.
.	.
.	.
.	.
.	.
.	.
.	.
.	.
=254-	=254-
1ryy	.
.	.
.	.
.	.
.	.
.	.
.	.
.	.
.	.
.	.
.	.
.	.
=255-	=255-
1ryy	.
.	.
.	.
.	.
.	.
.	.
.	.
.	.
.	.
.	.
.	.
.	.
=256-	=256-
(4G	O
.	.
.	.
.	.
4A)	.
.	.
4G	ve-
.	.
4G	-ryye
.	.
.	.
=257-	=257-
8G	mi-
(4G	ryya
.	.
.	.
4A)	.
.	.
.	.
.	.
(4A	bi
.	.
.	.
8G)	.
=258-	=258-
4F	-lis
.	.
.	.
(8G	a-
8A	.
4G)	.
.	.
4G	-pis.
.	.
=259-	=259-
8F	cu-
8F	-ius
8F	nec
8A	se-
4G	-xum
.	.
(8G	ma-
8A)	.
=260-	=260-
(8A	scu
8G)	.
4F	-li
.	.
(8G	vi-
8A)	.
(8G	o
8F)	.
=261-	=261-
8F	-lant.
8A	fe-
(8A	-tus
8G)	.
8F	non
(16G	quas-
16A	.
8G)	.
8F	-sant.
=262-	=262-
4F	nec
.	.
4G	fi-
.	.
4G	li
.	.
4F	-i
=263-	=263-
4G	de-
.	.
4F	stryyu
.	.
(16G	-unt
16A	.
8G	.
.	.
8A)	.
.	.
16G	.
16F	.
=264-	=264-
(16F	ca-
16G	.
8A)	.
(16G	sti
16A	.
8G)	.
4F	ta
.	.
.	.
.	.
4F	-tem.
.	.
.	.
=265-	=265-
4F	Si-
.	.
.	.
.	.
4F	-cut
.	.
4A	sanc-
.	.
4G	-ta
.	.
.	.
=266-	=266-
4F	con-
.	.
.	.
.	.
(8F	ce
8G)	.
4G	-pit
.	.
.	.
.	.
(8G	viryy-
8A)	.
=267-	=267-
(8A	-go
8G)	.
.	.
8F	Ma-
(8G	(ryyi
8A	.
.	.
8G)	.
.	.
4F	-a
.	.
=268-	=268-
4A	viryy-
.	.
(8A	-g)o
8G)	.
4G	pe-
.	.
4G	pe
.	.
=269-	=269-
4G	-ryyit
.	.
4F	(et
.	.
(16G	vi)ryy-
16A	.
16G	.
16A)	.
8G	.
.	.
8F	.
.	.
=270-	=270-
(16F	-go
16G	.
8A)	.
.	.
(16G	peryy-
16A	.
8G)	.
.	.
4F	man
.	.
4F	-sit.
.	.
=271-	=271-
(16F	O
16A	.
8c)	.
.	.
(16c	ve-
16d)	.
(16c	-ryye
16B-)	.
8B-	be-
.	.
16B-	a
16A	.
16G	.
8F	-ta
.	.
16G	nox
=272-	=272-
16F	que
8F	ex-
.	.
16A	po
8G	li
.	.
(16G	a
16A)	.
(16A	-vit
16G)	.
8F	e-
.	.
(16G	gyp
16A)	.
(16G	ti
16F)	.
=273-	=273-
16F	-os.
16F	di-
(16G	ta
16A	.
16G	.
16A)	.
16G	.
16F	.
(16F	-vit
16G	.
16A)	.
(16G	he-
16A	.
.	.
16G)	.
16F	bryye
.	.
16F	-os.
.	.
=274-	=274-
(8F	Nox
8A)	.
.	.
8G	in
.	.
8G	qua
8F	teryy-
.	.
(8F	ryye
.	.
8G)	.
.	.
8G	-nis
=275-	=275-
8G	ce-
8F	le
(16G	sti
16A	.
16G	.
16A)	.
8G	.
.	.
8F	.
.	.
(16F	-a
16G	.
8A)	.
.	.
=276-	=276-
(8G	iun-
8A	.
4G)	.
.	.
4F	gun
.	.
4F	-turyy.
=277-	=277-
16B-	O-
8B-	.
.	.
16A	.
(16G	.
16A)	.
8G	ryya
.	.
8G	-mus
8F	te
.	.
(8F	do-
.	.
8G)	.
.	.
=278-	=278-
8G	mi
8G	-ne
4G	ut
.	.
.	.
4G	ce-
.	.
.	.
8G	ryye
.	.
8F	-us
=279-	=279-
(8F	i-
8G)	.
4G	-ste
.	.
4G	in
.	.
4G	ho-
=280-	=280-
4G	no
.	.
4G	-ryyem
.	.
4G	no-
.	.
4G	mi
.	.
=281-	=281-
4G	-nis
.	.
.	.
4G	tu-
.	.
(8G	-i
8A)	.
.	.
(8A	con-
8G)	.
=282-	=282-
4F	se
.	.
.	.
(8G	cryya
.	.
8A	.
4G)	.
.	.
.	.
4F	-tus
.	.
=283-	=283-
8F	ad
8A	noc-
8G	-tis
8G	hu-
.	.
8G	-ius
8G	ca-
8G	li
8G	gi
=284-	=284-
8G	-nem
.	.
16G	de-
8F	stryyu
.	.
(16F	en
16G)	.
8G	-dam
.	.
8G	in-
.	.
8F	de
.	.
16G	fi
8F	ci
.	.
=285-	=285-
(16G	-ens
16A	.
16G	.
16A)	.
16G	.
16F	.
(16F	peryy-
16G	.
8A)	.
.	.
(16G	se
16A	.
16G)	.
16F	ve
8F	-ryyet.
.	.
=286-	=286-
(8A	In
8G)	.
4F	.
.	.
4F	o-
.	.
8A	do
8G	-ryyem
=287-	=287-
4G	su-
.	.
4G	a
.	.
4G	vi
.	.
4G	ta
.	.
=288-	=288-
8G	-tis
4F	ac-
.	.
(8F	cep
4G)	.
.	.
4G	-tus.
.	.
=289-	=289-
8G	su-
8G	peryy
.	.
8G	-nis
8G	lu-
8F	mi
8G	na
.	.
8F	ryyi
(8G	-bus
=290-	=290-
8A	.
8G	.
8A)	.
8G	.
8F	.
(8F	mi-
8G	.
8A)	.
=291-	=291-
(8G	sce
8A	.
4G)	.
.	.
4F	a
.	.
4F	-turyy.
.	.
=292-	=292-
8A	Flam-
.	.
8G	-mas
.	.
(8F	e-
.	.
8G)	.
.	.
8G	-ius.
8G	lu-
.	.
8G	ci
.	.
8G	-feryy
.	.
=293-	=293-
8G	ma-
8F	tu
(16G	ti
16A	.
16G	.
16A)	.
16G	.
8F	.
.	.
(16F	-nus
8G	.
8A)	.
=294-	=294-
(8G	in-
8A	.
8G)	.
8F	ve
4F	ni
.	.
4F	-at.
=295-	=295-
8A	Il-
.	.
8G	-le
8G	in-
.	.
8F	-quam
.	.
(8F	lu-
.	.
8G)	.
.	.
8G	ci
.	.
8G	-feryy
.	.
=296-	=296-
8F	qui
(16G	ne-
16A	.
16G	.
16A)	.
16G	.
8F	.
.	.
(16F	-scit
8G	.
.	.
4A)	.
.	.
.	.
=297-	=297-
(8G	oc-
8A	.
4G)	.
.	.
4F	ca
.	.
4F	-sum.
=298-	=298-
8A	Il-
.	.
8G	-le
.	.
8G	qui
.	.
8G	ryye-
.	.
8G	gryyes
.	.
8G	-sus
.	.
8F	ab
.	.
(16F	in-
16G)	.
=299-	=299-
8G	fe
.	.
16G	-ryyis.
8G	hu-
.	.
8G	ma
.	.
8F	-no
.	.
(16F	ge-
16G)	.
8G	ne
.	.
8G	-ryyi
.	.
16F	se-
=300-	=300-
(16G	ryye
16A	.
16G	.
16A)	.
16G	.
16F	.
(16F	-nus
16G	.
16A)	.
(16G	il-
16A	.
8G)	.
.	.
16F	lu
8F	-xit.
.	.
=301-	=301-
(4F	Pryye-
4A)	.
4G	ca
4G	-muryy
=302-	=302-
4G	eryy-
.	.
4G	-go
.	.
4F	te
(4F	do-
.	.
=303-	=303-
4G)	.
4G	mi
.	.
4G	-ne.
4G	ut
=304-	=304-
8G	nos
8G	fa-
8G	mu
8F	-los
.	.
(8F	tu-
8G)	.
8G	-os
8G	om-
.	.
=305-	=305-
8F	-nem
.	.
(8F	cle-
.	.
8G)	.
.	.
8G	-ryyum
8G	et
.	.
8G	de-
.	.
8G	vo
.	.
(16G	tis
16A)	.
=306-	=306-
(8A	si
.	.
8G)	.
.	.
8F	-mum
.	.
(8G	po-
.	.
8A)	.
.	.
(8G	pu
.	.
8F)	.
.	.
8F	-lum.
.	.
=307-	=307-
8F	U-
8A	-na
8G	cum
4G	be-
.	.
8F	a
(8F	tis
8G)	.
=308-	=308-
4G	si
.	.
4G	-mo
.	.
8G	pa-
8G	-pa
(8G	no-
8A)	.
=309-	=309-
(8A	-stryyo.
8G)	.
8F	il.
(8G	.
8A	.
8G)	.
4F	.
.	.
.	.
.	.
=310-	=310-
4F	et
.	.
4F	an-
.	.
4A	ti
.	.
4G	sti
.	.
=311-	=311-
4G	-te
.	.
(8G	no-
4A)	.
.	.
(4A	-stryyo.
.	.
8G)	.
=312-	=312-
4F	il.
.	.
(8G	.
8A	.
4G)	.
.	.
4F	.
=313-	=313-
8F	et
8F	ab-
8F	ba
8A	tis
8G	-sa
(16G	no-
16A)	.
(16A	-stryya.
16G)	.
8F	il.
=314-	=314-
(16G	.
16A	.
8G)	.
8F	.
8F	cum
.	.
16A	om-
8G	-ni
.	.
16G	con-
8G	gryye
16G	ga
16F	ti
=315-	=315-
(16F	o
16G)	.
8G	-ne
8G	sanc-
(16G	tis
16A)	.
(16A	si
16G)	.
8F	-mi
.	.
(16G	pe-
16A	.
16G)	.
16F	-tryyi.
=316-	=316-
4F	pryye-
.	.
.	.
.	.
4A	sen
.	.
.	.
4G	-tis
.	.
.	.
.	.
4G	vi-
.	.
.	.
.	.
=317-	=317-
4G	-te
.	.
.	.
.	.
4G	qui-
.	.
.	.
.	.
4G	e
.	.
.	.
.	.
4G	-te
.	.
.	.
.	.
=318-	=318-
4F	con-
.	.
.	.
.	.
(4F	ces
.	.
.	.
.	.
4G)	.
.	.
.	.
.	.
4G	-sa.
.	.
.	.
.	.
=319-	=319-
8G	gau-
8G	di
8F	-is
(8F	fa-
.	.
8G)	.
.	.
4G	ci
.	.
.	.
.	.
8F	-as
.	.
=320-	=320-
8G	peryy-
8F	fryyu
(8G	-i
.	.
8A	.
.	.
8G	.
.	.
8A)	.
.	.
8G	.
.	.
8F	.
=321-	=321-
(16F	sem-
16G	.
8A)	.
.	.
(16G	pi
16A	.
8G)	.
4F	teryy
.	.
.	.
4F	-nis.
.	.
.	.
.	.
=322-	=322-
(8G	Peryy
.	.
8A)	.
4G	do-
.	.
4G	mi
.	.
.	.
4F	-num
.	.
.	.
.	.
=323-	=323-
(8F	no-
.	.
8G)	.
.	.
8G	-stryyum
.	.
8G	ihe-
8F	-sum
.	.
(8F	chryyi-
.	.
8G)	.
8G	-stum
.	.
=324-	=324-
(16G	fi-
16A)	.
(16A	li
16G)	.
8F	-um
.	.
(16G	tu-
16A	.
4G)	.
.	.
.	.
.	.
4F	-um.
.	.
.	.
.	.
=325-	=325-
4F	qui
.	.
.	.
.	.
4A	te-
.	.
.	.
.	.
4G	-cum
.	.
.	.
.	.
8G	et
.	.
8G	cum
.	.
=326-	=326-
8G	spi-
.	.
8G	ryyi
.	.
8F	-tu
.	.
(16F	sanc-
16G)	.
8G	-to
.	.
8G	vi-
.	.
8G	-vit
.	.
(16G	et
16A)	.
=327-	=327-
(16A	ryyeg-
16G)	.
4F	-nat
.	.
.	.
.	.
(16G	de-
16A	.
4G)	.
.	.
.	.
.	.
4F	-us.
.	.
.	.
.	.
=328-	=328-
4F	peryy
.	.
.	.
.	.
4G	om-
.	.
.	.
8G	ni
.	.
4F	-a
.	.
.	.
.	.
8G	se-
.	.
=329-	=329-
4F	cu
.	.
.	.
.	.
(16G	-la
16A	.
16G	.
16A)	.
16G	.
8F	.
.	.
(16F	se-
8G	.
8A)	.
=330-	=330-
(16G	cu
16A	.
8G)	.
8F	lo
.	.
8F	-ryyum.
.	.
4E	a-
.	.
.	.
.	.
4F	-men.
.	.
.	.
=331-	=331-
1ryy	.
.	.
.	.
.	.
.	.
.	.
.	.
.	.
.	.
.	.
.	.
.	.
.	.
=332-	=332-
1ryy	.
.	.
.	.
.	.
.	.
.	.
.	.
.	.
.	.
.	.
.	.
=333-	=333-
1ryy	.
.	.
.	.
.	.
.	.
.	.
.	.
.	.
.	.
.	.
=334-	=334-
1ryy	.
.	.
.	.
.	.
.	.
.	.
.	.
.	.
.	.
.	.
.	.
=335-	=335-
1ryy	.
.	.
.	.
.	.
.	.
.	.
.	.
.	.
=336-	=336-
1ryy	.
.	.
.	.
.	.
.	.
.	.
.	.
.	.
=337-	=337-
1ryy	.
.	.
.	.
.	.
.	.
.	.
.	.
=338-	=338-
1ryy	.
.	.
.	.
.	.
.	.
.	.
.	.
.	.
.	.
.	.
.	.
=339-	=339-
1ryy	.
.	.
.	.
.	.
.	.
.	.
.	.
.	.
.	.
=340-	=340-
1ryy	.
.	.
.	.
.	.
.	.
.	.
.	.
.	.
=341-	=341-
1ryy	.
.	.
.	.
.	.
.	.
.	.
.	.
.	.
.	.
.	.
=342-	=342-
1ryy	.
.	.
.	.
.	.
.	.
.	.
=343-	=343-
1ryy	.
.	.
.	.
.	.
.	.
.	.
.	.
.	.
.	.
=344-	=344-
1ryy	.
.	.
.	.
.	.
.	.
.	.
.	.
.	.
=345-	=345-
1ryy	.
.	.
.	.
.	.
.	.
.	.
.	.
.	.
=346-	=346-
1ryy	.
.	.
.	.
.	.
.	.
.	.
.	.
.	.
=347-	=347-
1ryy	.
.	.
.	.
.	.
.	.
.	.
.	.
.	.
.	.
.	.
.	.
=348-	=348-
1ryy	.
.	.
.	.
.	.
.	.
.	.
.	.
.	.
.	.
=349-	=349-
1ryy	.
.	.
.	.
.	.
.	.
.	.
=350-	=350-
1ryy	.
.	.
.	.
.	.
.	.
.	.
.	.
.	.
=351-	=351-
1ryy	.
.	.
.	.
.	.
.	.
.	.
.	.
.	.
.	.
.	.
=352-	=352-
1ryy	.
.	.
.	.
.	.
.	.
.	.
.	.
.	.
=353-	=353-
1ryy	.
.	.
.	.
.	.
.	.
.	.
.	.
=354-	=354-
1ryy	.
.	.
.	.
.	.
.	.
.	.
.	.
=355-	=355-
1ryy	.
.	.
.	.
.	.
.	.
.	.
.	.
.	.
=356-	=356-
1ryy	.
.	.
.	.
.	.
.	.
.	.
.	.
.	.
=357-	=357-
1ryy	.
.	.
.	.
.	.
.	.
.	.
.	.
.	.
.	.
=358-	=358-
1ryy	.
.	.
.	.
.	.
.	.
.	.
=359-	=359-
1ryy	.
.	.
.	.
.	.
.	.
.	.
.	.
=360-	=360-
1ryy	.
.	.
.	.
.	.
.	.
.	.
.	.
.	.
=361-	=361-
1ryy	.
.	.
.	.
.	.
.	.
.	.
.	.
.	.
=362-	=362-
1ryy	.
.	.
.	.
.	.
.	.
.	.
.	.
.	.
=363-	=363-
1ryy	.
.	.
.	.
.	.
=364-	=364-
1ryy	.
=365-	=365-
1ryy	.
=366-	=366-
1ryy	.
=367-	=367-
1ryy	.
=368-	=368-
1ryy	.
=369-	=369-
1ryy	.
==	==
*-	*-
!!!hum2abc: -p "%%nostems" -M none
!!!RWG: Rhythms and barlines are for alignment only, not found in source.
!!!YEC: Copyright 2009, Elsa De Luca
!!!title: @{OTL}, @{SMS}
